icons/health_fill.svg

<svg width="48" height="48" viewBox="0 0 48 48" fill="none" xmlns="http://www.w3.org/2000/svg">
<path fill-rule="evenodd" clip-rule="evenodd" d="M21.671 6.80092C23.4182 5.73302 25.6603 5.73303 27.4076 6.80092L29.4455 8.04646C32.3025 9.79264 35.5581 10.1824 38.8277 10.5739C39.8847 10.7005 40.9432 10.8272 41.9901 11C41.9901 11 42.0132 12.8335 41.9889 13.6659L41.78 20.817C41.6008 26.9498 38.8735 32.7654 34.1951 36.991C31.988 38.9844 29.7054 40.7851 27.0825 42.2813C25.5274 43.1684 23.6035 43.2387 21.9814 42.4676C18.953 41.028 16.271 39.2023 13.8227 36.991C9.14422 32.7654 6.41696 26.9498 6.23778 20.817L6.02952 13.6887C6.00485 12.8445 6.02952 11 6.02952 11C6.8795 10.8996 7.74583 10.8173 8.61872 10.7344C12.4722 10.3682 16.4534 9.98986 19.7195 7.99367L21.671 6.80092ZM21.9998 22V15H25.9998V22H32.9998V26H25.9998V33H21.9998V26H14.9998V22H21.9998Z" fill="black"/>
</svg>

<svg
  xmlns="http://www.w3.org/2000/svg"
  width="24"
  height="24"
  viewBox="0 0 24 24"
  fill="none"
  stroke="currentColor"
  stroke-width="2"
  stroke-linecap="round"
  stroke-linejoin="round"
>
  <path
    fill-rule="evenodd"
    d="M21.671 6.8a5.54 5.54 0 0 1 5.737 0l2.037 1.246c2.858 1.747 6.113 2.136 9.383 2.528 1.057.127 2.115.253 3.162.426 0 0 .023 1.834-.001 2.666l-.209 7.151c-.18 6.133-2.907 11.948-7.585 16.174-2.207 1.993-4.49 3.794-7.113 5.29a5.55 5.55 0 0 1-5.1.187c-3.029-1.44-5.711-3.266-8.16-5.477-4.678-4.226-7.405-10.041-7.584-16.174l-.208-7.128c-.025-.844 0-2.689 0-2.689.85-.1 1.716-.183 2.589-.266 3.853-.366 7.834-.744 11.1-2.74zM22 22v-7h4v7h7v4h-7v7h-4v-7h-7v-4z"
    clip-rule="evenodd"
  />
</svg>
